X:4168
L:1/8
Q:1/4=120
M:6/8
K:G
"^A" z D | G2 G BdB | G4 z D | G2 G BdB | A4 z D | G2 G BdB | c3 e3 | dcB AGF | G4 || z z | 
 G,,2 z B,,2 z | G,,2 z D,,2 D,, | G,,2 z B,,2 z | A,,2 z D,,2 D,, | G,,2 z B,,2 z | C,2 z E,2 z | 
 D,zD,D,,E,,F,, | G,,4 ||"^B" FG | A2 A ABA | D4 z G | F2 A ABc | d4 z c | B2 A G2 F | E2 F G2 A | 
 BcB AGF | E3 D3 || z G,, | A,,zA,,A,,zA,, | D,,zD,,D,,zG,, | A,,zA,, A,,zC, | D,4 z C, | 
 B,,3 G,,3 | E,,3 G,,2 A,, | B,,3 A,, G,,F,, | E,,3 D,,3 ||"^C" G2 G BdB | G4 z D | G2 G BdB | 
 A4 z G | B3 G2 B | c3 e3 | dcB AGF | G4 || G,,2 z B,,2 z | G,,2 z D,,2 D,, | G,,2 z B,,2 z | 
 A,,2 z D,,2 D,, | G,,2 z B,,2 z | C,2 z E,2 z | D,zD,D,,zD,, | G,,4 ||

